!!!COM: Palestrina, Giovanni Perluigi da
!!!OPR: De beata virgine (1570)
!!!OTL: Kyrie
**kern	**kern	**kern	**kern	**kern	**kern
*Ibass	*Itenor	*Itenor	*Icalto	*Icant	*Icant
!Bassus	!Tenor 2	!Tenor 1	!Altus	!Cantus 2	!Cantus 1
*clefF4	*clefGv2	*clefGv2	*clefG2	*clefG2	*clefG2
*k[b-]	*k[b-]	*k[b-]	*k[b-]	*k[b-]	*k[b-]
*?:X	*?:X	*?:X	*?:X	*?:X	*?:X
*M4/2	*M4/2	*M4/2	*M4/2	*M4/2	*M4/2
=1	=1	=1	=1	=1	=1
0r	0r	0r	0r	0r	1g
.	.	.	.	.	1b-
=2	=2	=2	=2	=2	=2
0r	0r	0r	0r	1r	1cc
.	.	.	.	1g	[1dd
=3	=3	=3	=3	=3	=3
0r	0r	0r	0r	1b-	2dd]
.	.	.	.	.	4cc
.	.	.	.	.	4b-
.	.	.	.	1cc	4a
.	.	.	.	.	4g
.	.	.	.	.	2a
=4	=4	=4	=4	=4	=4
0r	1G	0r	0r	0dd	2g
.	.	.	.	.	1b-
.	1B-	.	.	.	.
.	.	.	.	.	4a
.	.	.	.	.	4g
=5	=5	=5	=5	=5	=5
0r	1c	0r	0r	2.cc	2a
.	.	.	.	.	1g
.	.	.	.	4b-	.
.	2.d	.	.	1a	.
.	.	.	.	.	2f
.	4c	.	.	.	.
=6	=6	=6	=6	=6	=6
0r	4B-	1G	1r	1g	2.b-
.	4A	.	.	.	.
.	1B-	.	.	.	.
.	.	.	.	.	4cc
.	.	1B-	1d	2r	1dd
.	4A	.	.	[2dd	.
.	4G	.	.	.	.
=7	=7	=7	=7	=7	=7
0r	1A	1c	1f	4dd]	0r
.	.	.	.	4cc	.
.	.	.	.	2cc	.
.	1G	[1d	1g	4b-	.
.	.	.	.	4cc	.
.	.	.	.	4dd	.
.	.	.	.	4ee	.
=8	=8	=8	=8	=8	=8
1D	2r	1d]	0a	0ff	0r
.	2F	.	.	.	.
1F	2A	1c	.	.	.
.	2A	.	.	.	.
=9	=9	=9	=9	=9	=9
1G	4B-	1B-	1g	1dd	2r
.	4c	.	.	.	.
.	4d	.	.	.	1dd
.	4e	.	.	.	.
1A	4f	4A	2f	1r	.
.	4g	4B-	.	.	.
.	2a	4c	[2e	.	2cc
.	.	4A	.	.	.
=10	=10	=10	=10	=10	=10
2G	1d	4B-	4e]	0r	2b-
.	.	4c	4d	.	.
2F	.	2d	1d	.	2.a
1E	1r	1G	.	.	.
.	.	.	.	.	4g
.	.	.	2c#	.	[2g
=11	=11	=11	=11	=11	=11
1D	2r	1A	1d	1.dd	2g]
.	2A	.	.	.	2f#
2G	2B-	2G	1r	.	1g
2E	2c	[2g	.	2cc	.
=12	=12	=12	=12	=12	=12
1D	1d	2g]	1r	2b-	2r
.	.	2f	.	2.a	2a
1r	2c	2e	1g	.	2cc
.	.	.	.	4g	.
.	2B-	2d	.	[2g	2dd
=13	=13	=13	=13	=13	=13
1r	1A	2e	2a	2g]	1cc
.	.	2c	2a	2f#	.
2r	2.G	2d	2.b-	1g	2b-
[2E-	.	2B-	.	.	4g
.	4F	.	4a	.	4a
=14	=14	=14	=14	=14	=14
2E-]	4G	1B-	2g	0r	4b-
.	4A	.	.	.	4cc
2D	1B-	.	2f	.	4dd
.	.	.	.	.	4b-
1C	.	1c	2e-	.	1ee-
.	2A	.	2c	.	.
=15	=15	=15	=15	=15	=15
2BB-	1B-	2.d	2.f	2r	1dd
1B-	.	.	.	2dd	.
.	.	4e-	4e-	.	.
.	2r	2f	2d	2b-	1r
2A	[2f	2F	2c	2cc	.
=16	=16	=16	=16	=16	=16
1G	2f]	4B-	1B-	2dd	2r
.	.	4A	.	.	.
.	2e-	4B-	.	2ee-	1b-
.	.	4c	.	.	.
1F	2d	4d	1r	2.ff	.
.	.	4e-	.	.	.
.	2c	[2f	.	.	2a
.	.	.	.	4ee-	.
=17	=17	=17	=17	=17	=17
2r	4B-	4f]	2r	4dd	2.b-
.	4c	4e-	.	4cc	.
1G	4d	4d	1b-	4b-	.
.	4e-	4c	.	4a	4cc
.	1d	4B-	.	2g	1dd
.	.	4G	.	.	.
2F	.	[2d	[2a	2a	.
=18	=18	=18	=18	=18	=18
1E-	1G	2d]	4a]	2b-	0r
.	.	.	4g	.	.
.	.	2c	1g	2g	.
1D	1A	1d	.	1dd	.
.	.	.	2f#	.	.
=19	=19	=19	=19	=19	=19
1G	2G	2r	1g	2.dd	2r
.	1d	1B-	.	.	2dd
.	.	.	.	4ee	.
1r	.	.	1f	1ff	2b-
.	2c	2A	.	.	2cc
=20	=20	=20	=20	=20	=20
0r	1B-	1G	2r	0r	2dd
.	.	.	1b-	.	2ee-
.	1c	1F	.	.	2.ff
.	.	.	2a	.	.
.	.	.	.	.	4ee-
=21	=21	=21	=21	=21	=21
2r	1B-	2.f	2b-	2r	4dd
.	.	.	.	.	4cc
1B-	.	.	2f	2dd	4b-
.	.	4e-	.	.	4a
.	2r	2d	2g	2b-	2g
2A	2F	2c	[2f	2cc	2a
=22	=22	=22	=22	=22	=22
1G	2.B-	2B-	2f]	2dd	4b-
.	.	.	.	.	4g
.	.	2G	2e-	2ee-	1b-
.	4c	.	.	.	.
1F	4d	2r	2d	2.ff	.
.	4e-	.	.	.	.
.	[2f	2c	2c	.	2a
.	.	.	.	4ee-	.
=23	=23	=23	=23	=23	=23
2r	4f]	4B-	2d	4dd	2.b-
.	4e-	4c	.	4cc	.
1G	4d	4d	1b-	4b-	.
.	4c	4e-	.	4a	4cc
.	4B-	1d	.	2g	1dd
.	4G	.	.	.	.
2F	[2d	.	[2a	2a	.
=24	=24	=24	=24	=24	=24
1E-	2d]	1G	4a]	2b-	1r
.	.	.	4g	.	.
.	2c	.	1g	2g	.
1D	2.d	1A	.	1dd	2r
.	.	.	2f#	.	[2dd
.	4c	.	.	.	.
=25	=25	=25	=25	=25	=25
2r	4B-	[0G	[0g	2r	4dd]
.	4A	.	.	.	4cc
2.E-	2G	.	.	2.gg	4b-
.	.	.	.	.	4a
.	2B-	.	.	.	2g
4D	.	.	.	4ff	.
[2C	2c	.	.	4ee-	2cc
.	.	.	.	4dd	.
=26	=26	=26	=26	=26	=26
2C]	2G	0G]	0g]	2cc	2ee-
2BB	2.g	.	.	2dd	2dd
[1C	.	.	.	2.ee-	2.cc
.	4f	.	.	.	.
.	[2e-	.	.	.	.
.	.	.	.	4dd	4dd
=27	=27	=27	=27	=27	=27
0C]	4e-]	[0G	[0g	1cc	0ee-
.	4d	.	.	.	.
.	4c	.	.	.	.
.	4B	.	.	.	.
.	1c	.	.	1cc	.
=28	=28	=28	=28	=28	=28
0G	0d	0G]	0g]	0b	0dd
*	*	*	*	*-	*-
!! Christe
*Itenor	*Icalto	*Icant	*Icant
!Tenor	!Altus	!Cantus 2	!Cantus 1
*clefGv2	*clefG2	*clefG2	*clefG2
*k[b-]	*k[b-]	*k[b-]	*k[b-]
*?:X	*?:X	*?:X	*?:X
*M4/2	*M4/2	*M4/2	*M4/2
=29	=29	=29	=29
0d	1r	0r	0r
.	[1a	.	.
=30	=30	=30	=30
1d	1a]	0r	0r
1c	1a	.	.
=31	=31	=31	=31
1e-	1g	1r	0r
2d	1b-	[1dd	.
4B-	.	.	.
4c	.	.	.
=32	=32	=32	=32
4d	2a	1dd]	0r
4c	.	.	.
4d	4f	.	.
4e	4g	.	.
2f	4a	1dd	.
.	8g	.	.
.	8a	.	.
2g	2b-	.	.
=33	=33	=33	=33
0c	2a	1cc	0r
.	2g	.	.
.	1cc	1ee-	.
=34	=34	=34	=34
1G	2.b-	2.dd	1r
.	4a	4cc	.
2r	4g	4b-	[1dd
.	4f	4a	.
[2g	2g	[2b-	.
=35	=35	=35	=35
2g]	1d	2b-]	1dd]
4f	.	4a	.
4e	.	4g	.
2f	2r	2a	1dd
2g	[2g	2b-	.
=36	=36	=36	=36
2e	2g]	2g	1cc
2f	2.a	1cc	.
1c	.	.	1ee-
.	4g	.	.
.	[2g	2b-	.
=37	=37	=37	=37
1d	2g]	1a	2.dd
.	2f#	.	.
.	.	.	4cc
1G	1g	2r	4b-
.	.	.	4a
.	.	[2g	2b-
=38	=38	=38	=38
2r	1c	2g]	2.cc
2c	.	2a	.
.	.	.	4b-
2d	1r	2f	2a
2B-	.	2g	[2g
=39	=39	=39	=39
2c	1r	2.a	2g]
2d	.	.	2f#
.	.	4b-	.
1e-	2r	4cc	1g
.	.	4b-	.
.	2g	4b-	.
.	.	8a	.
.	.	8g	.
=40	=40	=40	=40
1d	2a	4f	0r
.	.	4g	.
.	2f	4a	.
.	.	4b-	.
2c	4g	2cc	.
.	4a	.	.
2B-	[2b-	[2dd	.
=41	=41	=41	=41
1e-	2b-]	2dd]	1g
.	4a	2cc	.
.	4g	.	.
1d	2f	[1dd	2a
.	2a	.	2f
=42	=42	=42	=42
2r	2b-	0dd]	2g
2d	2f	.	2a
4G	2g	.	1b-
4A	.	.	.
4B-	4d	.	.
4c	4e	.	.
=43	=43	=43	=43
4d	4f	2r	1a
4e	4g	.	.
2.f	2.a	2cc	.
.	.	2dd	1r
4d	4f	.	.
2e-	2g	2b-	.
=44	=44	=44	=44
2c	2a	2cc	1r
2B-	1b-	2dd	.
1c	.	1ee-	2r
.	2a	.	2cc
=45	=45	=45	=45
1g	1b-	2dd	2dd
.	.	2g	2b-
2.f	1r	2a	2cc
.	.	2f	2dd
8e-	.	.	.
8d	.	.	.
=46	=46	=46	=46
1c	0r	2g	1ee-
.	.	2a	.
[1G	.	2.b-	2dd
.	.	.	4g
.	.	4a	4a
=47	=47	=47	=47
0G]	1r	4g	4b-
.	.	4a	4cc
.	.	4b-	2dd
.	.	4cc	.
.	1g	2dd	4b-
.	.	.	4cc
.	.	2b-	4dd
.	.	.	4ee
=48	=48	=48	=48
0r	2a	2cc	1ff
.	2f	1dd	.
.	2g	.	1ee-
.	2a	2cc	.
=49	=49	=49	=49
1r	2.b-	2dd	1dd
.	.	1ff	.
.	4a	.	.
1c	1g	.	2.cc
.	.	2ee	.
.	.	.	4b-
=50	=50	=50	=50
2d	1f	2.ff	2a
2B-	.	.	2dd
.	.	4dd	.
2c	1r	2ee-	2cc
2d	.	[2dd	[2b-
=51	=51	=51	=51
1e-	1g	2dd]	2b-]
.	.	2cc	4a
.	.	.	4g
1d	2a	1dd	2f
.	2f	.	2a
=52	=52	=52	=52
0r	2g	2r	2b-
.	2a	2cc	2a
.	2.b-	2dd	1g
.	.	2b-	.
.	4g	.	.
=53	=53	=53	=53
1r	2a	2cc	2f
.	2b-	1dd	1ff
2r	1g	.	.
2c	.	4cc	2ee
.	.	4b-	.
=54	=54	=54	=54
2d	2f	2a	2.ff
2B-	2b-	2dd	.
.	.	.	4dd
2c	2g	2cc	2ee-
2d	[2b-	2f	[2dd
=55	=55	=55	=55
1e-	4b-]	1g	2dd]
.	4a	.	.
.	1g	.	2cc
1d	.	1a	[1dd
.	2f#	.	.
=56	=56	=56	=56
0G	2g	0b-	0dd]
.	2d	.	.
.	1g	.	.
=57	=57	=57	=57
0d	0f#	0a	0dd
==	==	==	==
*-	*-	*-	*-
!!!CDT: 1525/^1526/-1594/2/2
!!!OCY: Italia
!!!AGN: Mass (Paraphrase)
!!!AST: renaissance, vocal
!!!ASW: Gregorian Mass
!!!PWK: Masses, Book 3
!!!RNB: Cadence finals: G,D,C,E,F
!!!YOR: Le Opere Complete, v. 6, p. 175
!!!YOO: Rome, Italy: Fratelli Scalera
!!!END: 1992//
!!!EED: John Miller
!!!YEC: Copyright 2000, John Miller
!!!YEN: United States of America
!!!YEM: Rights to all derivative electronic formats reserved.
!!!YEM: Refer to licensing agreement for further details.
!!!YEM: This file must be accompanied by the licensing agreement.
!!!YEM: A copy of the licensing agreement may be found at http://www.music-cog.ohio-state.edu/HumdrumDatabases/Palestrina/license.txt
!!!EMD: converted to Humdrum by Bret Aarden
